X:363
T:Gan Ainm
B:Joyce, P. W.; "Old Irish Folk Music and Songs"
N:See first paragraph in #361 for more information
R:song air
A:Cork
O:Irish
L:1/8
M:6/8
K:C
E/F/|GcB/A/ GCC/D/|EFD C2 E/F/|GGc d2 e/d/|BG((3G/A/B/) c2 E>F|
GGc dde/d/|BG/F/E/F/ HD2 E/F/|GcB/A/ GCD|EFD C2||
